X:300
T:B300-  Make Your Honours, Miss
Q:1/4=120
L:1/4
M:3/4
K:Dm
d3/2 e/f|cef|d/^c/ d/e/ f/d/|eee|d3/2 e/f|eef|\
d/^c/ d/e/ f/d/|^c3:|ff(a/b/)|gg(f/e/)|f/e/ d/f/ e/d/|\
eeA|a/g/ f/b/ a/f/|a2d|e^c2|d3|]

